-----BEGIN PGP PUBLIC KEY BLOCK-----

mQINBGqUfwQBEADTX24O9ALPpHGGqbOmbwh+G05FG6Bm+VzPEXlynPr3MYFKQPRg
8CL3W9Zk4Psld3oxpmgl6HT0qlTE2kR2Ycr9Uv7iapAVyJbsGgk10q9dRqFjYOnJ
HFflQTzYeJugf8vii+hdal7KQwVwpO8Ype4dsXBGUARJX/ZYcqFH2pM/mUF0Zxe/
HgQFhK7AhwfD25U4pkh4u4ycX7cVmNMSPBmPdvbBhoYjLAINVpKRxShRfFcICqqP
HXqkQxYjJfciJj9gplBAHV8z/ILnD5fmMDOl+obVLbfV3Cgkc6cspPGTfREEANPa
ja56v2eyqVBTv33nNRxjJmqFa6wtUdSqsRLbhSRwtdze7dECvmNEPbgMd5w2t3Wm
6sZWpE0Rx7rMPaxm6Vc8rZRFoGA9JyOaoFPOEoFjtg13iGi5BHdU9QchqmksoCpf
aiSANBF04A88FbWmme6dBrjivlKZv3/u1Q/EcjZEawtzhu9rSipR7W8pv1GeoMhZ
g0LN+eCUPhDZvdi7UnT9ysjrUctPvlHQgVhfoS5GsayMBG6bQetlacai4wK6k8V3
Q2Z+xh9wjKJK//Oj/cj5btp8knM55mgNNm337hcb0g/IVoDllfz/Tu8VpoD6KYiM
8B6yfD3oooYvVztR07PbuQRN9pmlM+dffBhZj3JRKW4QiKNph83BEOjaIwARAQAB
tDlpR09TIFNlY3VyZSBCb290IChlbmdpbmVlcmluZykgPHNlY3VyZWJvb3QtZW5n
QHBlcmxlLmNvbT6JAlEEEwEKADwWIQSxxka5Ch5FGCf6vDEKTzcWo3z+igUCapR/
BAMbLwQFCwkIBwICIgIGFQoJCAsCBBYCAwECHgcCF4AACgkQCk83FqN8/orsvQ/4
34Qp4WjlhEf1LrJYi0ucYXITuZH3zq+KSFUKEHg/tgK6kS5e625ozkGCQCiOekCY
ONrhwRWE5kWqomeSTb1reAuVWs0pbJ48QKY24m8WkJzhAZ8ax0GIa8/fncJ9aqlX
V6jwEKn63avji/lLcLE/wwxck6LqkK3siTm6bwkBLULjVVoHgxiXVJQVFrZ7aeiB
TIqj3stT04LMJLT7slIBAxgY287am5WtVY0SPbYiGPKcKqqteqkjB1jYHmQz01VH
q+HapVA5Zrutbx/YLOMjpANGFiCmRCtSJ76rjaR/wjiciUg9VmGpQ9nGr73QieRo
M/vwvaOfbuzNY79+S+89nNFE+nhCM8PewHqkzian/MAkz64BLHPvwb4qeQ+exA22
tmme5EXloKNBEwdC5jNfz57LSj+CdYRJ1qimvtMcpPm8TMtjXfRysXM9Jzk8AE1X
DVf8HhAjfNLZC7NyXuB39fxizZ3el8c3oqZOfEvzPOTpqd2ahk3f1RsJ5lpNUKka
5UL+96Mwua1mqkU3kaH69rbDDQcqIdTHUXw+EF3yWfd1nXO8KI8GWUvVrkdlw13n
iyyHQbOj6xOqn46jSbytE6cm6YcJR6ybFHj+cq4ZepbRHSU3ty7rHbQ6ETWUvBiI
vzbWvGHJ3/8Kg8LV+AEX4ymYbd3S9wK1ipzkARyYmA==
=RKSu
-----END PGP PUBLIC KEY BLOCK-----
