-----BEGIN PGP PRIVATE KEY BLOCK-----

lQcYBGqUfwQBEADTX24O9ALPpHGGqbOmbwh+G05FG6Bm+VzPEXlynPr3MYFKQPRg
8CL3W9Zk4Psld3oxpmgl6HT0qlTE2kR2Ycr9Uv7iapAVyJbsGgk10q9dRqFjYOnJ
HFflQTzYeJugf8vii+hdal7KQwVwpO8Ype4dsXBGUARJX/ZYcqFH2pM/mUF0Zxe/
HgQFhK7AhwfD25U4pkh4u4ycX7cVmNMSPBmPdvbBhoYjLAINVpKRxShRfFcICqqP
HXqkQxYjJfciJj9gplBAHV8z/ILnD5fmMDOl+obVLbfV3Cgkc6cspPGTfREEANPa
ja56v2eyqVBTv33nNRxjJmqFa6wtUdSqsRLbhSRwtdze7dECvmNEPbgMd5w2t3Wm
6sZWpE0Rx7rMPaxm6Vc8rZRFoGA9JyOaoFPOEoFjtg13iGi5BHdU9QchqmksoCpf
aiSANBF04A88FbWmme6dBrjivlKZv3/u1Q/EcjZEawtzhu9rSipR7W8pv1GeoMhZ
g0LN+eCUPhDZvdi7UnT9ysjrUctPvlHQgVhfoS5GsayMBG6bQetlacai4wK6k8V3
Q2Z+xh9wjKJK//Oj/cj5btp8knM55mgNNm337hcb0g/IVoDllfz/Tu8VpoD6KYiM
8B6yfD3oooYvVztR07PbuQRN9pmlM+dffBhZj3JRKW4QiKNph83BEOjaIwARAQAB
AA/+O0CnpgpyFUoYRvMgeLnsbAl0hfvqGaOyiBtya5Yk5hGbGDkgKGJ4stWsQogs
7wJQn0VyMZo52vI6pBo5keP1FtFiwQ61SF38LMBZr5xZa3DmweiDcMyAuTPx/g7F
NZdNjLrCjxlH7DQgfMTHf6XYG7vHaPZ6VSVQ9ddgbbeQioYIKrzRk9Iyt2dL442W
uClAaep3K10L3DQaqzO1i4mMcsKbBoIS7R4jjyCjIrjdhgYwkYEH8emGHTDvLjgw
0IJfRtUobuis7PJOsb4Vy0Hc4JzbmjvgKlO2bw16ohG05K7tC629taj87czlIVjE
O03VWfBx/jthJfiagfPMBXNxANUkpgY9RlmMTQ4pEhwWkDjNnS2wVpCj5ld4tccj
UByIEkiYemLVc5h2lezYzw1zyS1qk/LjHyUxWn7eJOLQp9BeadjMRWQjJGof2E0r
rsmFhS9NFN2jUeNkBPM2fNMfAJH2BHyWYYeWPovBabKffYcmq/rBNB9zE+zwnIsa
6yR08dFlVa6wheuCqAlr3AQzqLjVC+hg6VdiR3AjcAWWIyvXj7h5xWuARKXzLH9r
7x3eX3p8YrTkvlI35UEXxXNr8E0DXYfNdhpMYZ/nr1OuamzxvLmJcgcrQwMxANwu
Lok59YZ9gT7LTXIUHfhUvcnnCLbOLEnt7CwefC8+DbZLNd0IAOcnAm4S5qhz71jM
RKjeivkrrahlBzT5F9zOWQ9EUlgd/josvrBzktce9QgCUSMu7eQ4X7ppUvQn9QF3
3Tj6BHbD2jWusfdYVXtA/VC8LoLAwCx1MyGApK+ni3mmyc4nvhO3d1x7puzp22XS
XDIMWWgDoXSsmMPdS/nWUL8ZmRkOVAPHmi1PDJx0NwRiFfHTxI6FOityR04l8r3B
+mpbv0+pg2mW6VOtuiBKEKhMbMKsMU6CSJxow+THzDW1/jNqzk9KsvPNXGrXnRkc
V/gzSKRdgiTi3avCaK4xW8O6eOwcTV89WNW4tIgk2YK4HkWs+s0cd1CeijMoP2xo
MUByuB8IAOoYHP6NJNfkG5rYojecUlAoc6o71qz0KG4P1VLQvb8fPbUgWRXmFx+l
rOB6B/i39DHwgvvQe3+6MHuUSv9+hrUaLoKsBy6GPDhY7gu4FGRnWzPJxbbtIJ/a
tuK0R7HfaR4L48v2h9d4OKd8FD+RNsscz9R97JAdEDzUUqy6SPp1oqg53raassr8
kdL4sIinGhuoiz8yyE555EwFWlhzW42RwR334FznZfdG4wP0PBBf+Z2aGcfeWIXl
rry6TOSLu5YQ7PPCvWnhnzaCpb7CWT3N6jHVt2VzggD+abJdVyC116DA9CiFmVCP
AYsQP58891o9ARQUIWXaI3+zqn6IrX0IAJHXLScPtNbVu8yKzttCIJZCVO2xbfO+
BD/TasDk0qrbTqmlzKdbfCSObqCiF63xnZA0LIwstAMl/WHFBUdQ+Vtt4aJnIMuP
rbrQngF3QVPOSUODhFpWaZpInsPXWehGkiwQQoA3es2vyme8ZVV44E74TOCn85TJ
5J87JHU1zkxCQx9f5EQYOEfRnY86b3npbEa4IHnnOOtiOC+4zRkuK0kzxXVgDHz7
oYHj3BGPdcMcKTH9en0cu7DAq4W/PrXggPCQO4p905v4Ifd6rLbxqvjUCR1H8LYi
HRwhlVKIls/KqeIayJPX7cPYVNP3oYMJTRWanmjVTR+kGSStHv+s3VCDybQ5aUdP
UyBTZWN1cmUgQm9vdCAoZW5naW5lZXJpbmcpIDxzZWN1cmVib290LWVuZ0BwZXJs
ZS5jb20+iQJRBBMBCgA8FiEEscZGuQoeRRgn+rwxCk83FqN8/ooFAmqUfwQDGy8E
BQsJCAcCAiICBhUKCQgLAgQWAgMBAh4HAheAAAoJEApPNxajfP6K7L0P+N+EKeFo
5YRH9S6yWItLnGFyE7mR986vikhVChB4P7YCupEuXutuaM5BgkAojnpAmDja4cEV
hOZFqqJnkk29a3gLlVrNKWyePECmNuJvFpCc4QGfGsdBiGvP353CfWqpV1eo8BCp
+t2r44v5S3CxP8MMXJOi6pCt7Ik5um8JAS1C41VaB4MYl1SUFRa2e2nogUyKo97L
U9OCzCS0+7JSAQMYGNvO2puVrVWNEj22IhjynCqqrXqpIwdY2B5kM9NVR6vh2qVQ
OWa7rW8f2CzjI6QDRhYgpkQrUie+q42kf8I4nIlIPVZhqUPZxq+90InkaDP78L2j
n27szWO/fkvvPZzRRPp4QjPD3sB6pM4mp/zAJM+uASxz78G+KnkPnsQNtrZpnuRF
5aCjQRMHQuYzX8+ey0o/gnWESdaopr7THKT5vEzLY130crFzPSc5PABNVw1X/B4Q
I3zS2Quzcl7gd/X8Ys2d3pfHN6KmTnxL8zzk6andmoZN39UbCeZaTVCpGuVC/vej
MLmtZqpFN5Gh+va2ww0HKiHUx1F8PhBd8ln3dZ1zvCiPBllL1a5HZcNd54ssh0Gz
o+sTqp+Oo0m8rROnJumHCUesmxR4/nKuGXqW0R0lN7cu6x20OhE1lLwYiL821rxh
yd//CoPC1fgBF+MpmG3d0vcCtYqc5AEcmJg=
=OHhl
-----END PGP PRIVATE KEY BLOCK-----
